src/img/new-site/icon_gh2.svg

<?xml version="1.0" encoding="UTF-8"?>
<svg width="24px" height="24px" viewBox="0 0 24 24" version="1.1" xmlns="http://www.w3.org/2000/svg" xmlns:xlink="http://www.w3.org/1999/xlink">
    <!-- Generator: Sketch 42 (36781) - http://www.bohemiancoding.com/sketch -->
    <title>icon_gh</title>
    <desc>Created with Sketch.</desc>
    <defs></defs>
    <g id="Page-1" stroke="none" stroke-width="1" fill="none" fill-rule="evenodd">
        <g id="Artboard-Copy" transform="translate(-588.000000, -2326.000000)" fill="#FFFFFF">
            <g id="Group-18" transform="translate(0.000000, 2073.000000)">
                <g id="Group-16" transform="translate(211.000000, 20.000000)">
                    <g id="Group-17" transform="translate(332.000000, 0.000000)">
                        <g id="Group-12">
                            <g id="Group-2" transform="translate(40.000000, 97.000000)">
                                <g id="icon_github" transform="translate(5.000000, 136.000000)">
                                    <path d="M4,12.3335891 C4,16.0154087 6.3875298,19.1385862 9.69896764,20.240523 C10.1159029,20.3172596 10.2678412,20.0599364 10.2678412,19.8389351 C10.2678412,19.6414664 10.2606792,19.1171 10.2565866,18.4218668 C7.93863122,18.9252586 7.44956362,17.3045827 7.44956362,17.3045827 C7.07048508,16.3417948 6.52412085,16.0854947 6.52412085,16.0854947 C5.76749849,15.568802 6.58141748,15.5790335 6.58141748,15.5790335 C7.41784585,15.6378649 7.85780206,16.4379713 7.85780206,16.4379713 C8.60112342,17.7112864 9.80844511,17.3434626 10.2831886,17.130135 C10.358902,16.591956 10.5742759,16.2246437 10.8121592,16.0164319 C8.9617852,15.8061737 7.01625792,15.0909891 7.01625792,11.8977255 C7.01625792,10.9881416 7.3411093,10.2437971 7.87417252,9.66162252 C7.78822759,9.4508528 7.50225605,8.60316973 7.95602484,7.45621413 C7.95602484,7.45621413 8.65535058,7.23214341 10.2473782,8.31054769 C10.9119167,8.12535682 11.625055,8.03327297 12.3335891,8.02969193 C13.0416117,8.03327297 13.7542384,8.12535682 14.4198001,8.31054769 C16.0108045,7.23214341 16.7091071,7.45621413 16.7091071,7.45621413 C17.163899,8.60316973 16.8779275,9.4508528 16.7924941,9.66162252 C17.3265805,10.2437971 17.648874,10.9881416 17.648874,11.8977255 C17.648874,15.0991743 15.7002773,15.8036158 13.844276,16.0097814 C14.1430369,16.2671046 14.4095685,16.7756121 14.4095685,17.5532091 C14.4095685,18.6669122 14.399337,19.565753 14.399337,19.8389351 C14.399337,20.0619827 14.5497406,20.3213522 14.9723032,20.2400115 C18.2811832,19.1355167 20.6666667,16.0143855 20.6666667,12.3335891 C20.6666667,7.73093097 16.9352241,4 12.332566,4 C7.73144254,4 4,7.73093097 4,12.3335891 Z" id="Fill-3"></path>
                                </g>
                            </g>
                        </g>
                    </g>
                </g>
            </g>
        </g>
    </g>
</svg>

<svg width="24" height="24" viewBox="0 0 24 24" xmlns="http://www.w3.org/2000/svg"><title>icon_gh</title><path d="M4 12.334a8.334 8.334 0 0 0 5.699 7.907c.417.076.569-.181.569-.402 0-.198-.007-.722-.011-1.417-2.318.503-2.807-1.117-2.807-1.117-.38-.963-.926-1.22-.926-1.22-.757-.516.057-.506.057-.506.837.059 1.277.859 1.277.859.743 1.273 1.95.905 2.425.692.076-.538.291-.905.53-1.114-1.851-.21-3.797-.925-3.797-4.118 0-.91.325-1.654.858-2.236-.086-.211-.372-1.059.082-2.206 0 0 .7-.224 2.291.855a7.982 7.982 0 0 1 2.087-.281 7.99 7.99 0 0 1 2.086.28c1.59-1.078 2.29-.854 2.29-.854.454 1.147.168 1.995.082 2.206.535.582.857 1.326.857 2.236 0 3.201-1.949 3.906-3.805 4.112.299.257.566.766.566 1.543 0 1.114-.01 2.013-.01 2.286 0 .223.15.482.572.401A8.334 8.334 0 1 0 4 12.334z" fill="#FFF" fill-rule="evenodd"/></svg>
